!!!!SEGMENT: pl-wtm--a-27-682-73_kagan-jakub--jak-we-snie.krn
!!!cenid: 19xx:15
!!!COM: Kagan, Jakub
!!!COM-rismID: pe50046719
!!!CDT: 1896/02/07-1942
!!!CNT: Polish
!!!OTL: Jak we śnie
!!!PDT:
!!!AGN: Secular
!!!YEC: Copyright 2022 Narodowy Instytut Fryderyka Chopina (https://polishscores.org)
!!!YEM: License CC-BY-4.0 (https://creativecommons.org/licenses/by/4.0)
!!!SMS-siglum: PL-Wtm
!!!SMS-shelfmark: A.27.682/73
!!!SMS-variant:
!!!SMS-altvar:
!!!SMS-shelfwork: W
!!!NIFC-rismSourceID: 1001218070
!!!NIFC-rismChildID: 1001218070
!!!NIFC-islandoraID: pl-wtm:95453
!!!URL-pdf-islandora: https://repozytorium.nifc.pl/islandora/object/pl-wtm%3A95453/datastream/PDF/view
!!!URL-scan: https://polish.musicsources.pl/pl/lokalizacje/galeria/druki-muzyczne/20360/2 @EN{Scan on Polish Music Sources Website} @PL{Skany w portalu Dziedzictwo Muzyki Polskiej w otwartym dostępie}
!!!IIIF:
!!!ONB-nifc:
!!!AIN: 1 piano
!!!key: B-
**kern	**kern	**text	**text	**dynam
*part1	*part1	*part1	*part1	*part1
*staff2	*staff1	*staff1	*staff1	*
*I"[Piano]	*I"[Piano]	*	*	*
*I'[pf]	*I'[pf]	*	*	*
*ICklav	*ICklav	*	*	*
*Ipiano	*Ipiano	*	*	*
*>[A,A1,A,A2,A,A3,B,B1,B,B2]	*>[A,A1,A,A2,A,A3,B,B1,B,B2]	*>[A,A1,A,A2,A,A3,B,B1,B,B2]	*>[A,A1,A,A2,A,A3,B,B1,B,B2]	*>[A,A1,A,A2,A,A3,B,B1,B,B2]
*>A	*>A	*>A	*>A	*>A
*clefF4	*clefG2	*	*	*
*k[b-e-]	*k[b-e-]	*	*	*
*B-:	*B-:	*	*	*
*M3/4	*M3/4	*	*	*
!	!LO:TX:a:B:t=Tempo walca.	!	!	!
!	!LO:TX:a:B:t=INTRODUKCJA.	!	!	!LO:DY:b
4r	(4f/	.	.	p <
4r	4en/)	.	.	.
=1	=1	=1	=1	=1
(4F\	(4e-X/	.	.	.
4A\	4f/	.	.	.
4c\)	4a/)	.	.	.
=2	=2	=2	=2	=2
(4e-\	(4cc\	.	.	.
4c\	4a/	.	.	.
4e-\)	4cc\)	.	.	[
=3	=3	=3	=3	=3
!	!	!	!	!LO:DY:b
(2e-\	([2a\ [<2ee- 2gg	.	.	p
4en\)	4a\]) 4ee-] 4gg-X	.	.	.
=4	=4	=4	=4	=4
2.ryy	4a\ 4ee- 4ff	.	.	.
*	*Xtuplet	*	*	*
.	(56ggg\/LLL	.	.	.
.	56ggg-X\	.	.	.
.	56fff\	.	.	.
.	56eee-\	.	.	.
.	56ccc\	.	.	.
.	56aa\	.	.	.
.	56gg\	.	.	.
.	56gg-X\	.	.	.
.	56ff\	.	.	.
.	56ee-\	.	.	.
.	56cc\	.	.	.
.	56a\	.	.	.
.	56g\	.	.	.
.	56g-X\	.	.	.
.	56f\	.	.	.
.	56e-\	.	.	.
.	56c\	.	.	.
.	56A</	.	.	.
.	56G</	.	.	.
.	56G-X</	.	.	.
.	56F</	.	.	.
.	56E-</	.	.	.
.	56C</	.	.	.
.	56AA</	.	.	.
.	56GG</	.	.	.
.	56GG-X</	.	.	.
.	56FF</	.	.	.
.	56EEE-<;</JJJ)	.	.	.
!!LO:LB:g=original	!	!	!	!
=5	=5	=5	=5	=5
*M3/4	*M3/4	*	*	*
*	*	*above	*above	*
!	!LO:TX:a:B:t=Tempo di Valse lento.	!	!	!
4r	4F/ 4f	Jak	.	.
4r	4En/ 4en	we	.	.
!LO:TX:rj:b:t=[segno]	!LO:TX:rj:a:t=[segno]	!	!	!
=6|:	=6|:	=6|:	=6|:	=6|:
*	*^	*	*	*
4AAA/ 4AA	[<2.E-X/ [2.e-X	4r	śnie	.	.
4r	.	4A\ 4c	.	.	.
4r	.	[4A\ 4c	.	.	.
=7	=7	=7	=7	=7	=7
4FFF/ 4FF	4E-/] 4e-]	2.A\] 2.c	.	.	.
4r	(<4E-/ 4e-	.	Jak	.	.
4r	4F/) 4f	.	we	.	.
=8	=8	=8	=8	=8	=8
4BBB-/ 4BB-	[<2.D/ [2.d	4r	śnie	.	.
4r	.	4F\ 4B-	.	.	.
4r	.	[4F\ 4B-	.	.	.
=9	=9	=9	=9	=9	=9
4FFF/ 4FF	4D/] 4d]	4F\] 4B-	.	.	.
4r	(4F/ 4f	2ryy	Czar	.	.
4r	4En/) 4en	.	twych	.	.
=10	=10	=10	=10	=10	=10
4AAA/ 4AA	[2.E-X/ [2.e-X	4ryy	kras	.	.
4r	.	4A\ 4c	.	.	.
4r	.	[4A\ 4c	.	.	.
=11	=11	=11	=11	=11	=11
4FFF/ 4FF	4E-/] 4e-]	2.A\] 2.c	.	.	.
4r	(<4E-/ 4e-	.	spo-	.	.
4r	4F/) 4f	.	-wił	.	.
=12	=12	=12	=12	=12	=12
4BBB-/ 4BB-	(2.D/ 2.d	4r	mnie	.	.
4r	.	4F\ 4B-	.	.	.
4r	.	4F\ 4B-	.	.	.
!!LO:LB:g=original	!	!	!	!	!
=13	=13	=13	=13	=13	=13
!	!LO:TX:t=P:problem:brak zakończenia ligatury w t. 13	!	!	!	!
4FFF/ 4FF	4D/) 4d	4F\ 4B-	.	.	<
4r	(4D/ 4d	2ryy	Jak	.	.
4r	4F/) 4f	.	we	.	[[
=14	=14	=14	=14	=14	=14
!	!	!	!	!	!LO:DY:b
4DD/ 4D	2.B-/ 2.b-	4r	śnie	.	f
4r	.	4d\ 4f#X	.	.	.
4r	.	4d\ 4f#	.	.	.
=15	=15	=15	=15	=15	=15
4DD/ 4D	2A/ 2a	4r	ust	.	.
4r	.	4d\ 4f#X	.	.	.
4r	4F#X/ 4f#	4ryy	twych	.	.
=16	=16	=16	=16	=16	=16
4EE-/ 4E-	[2.G/ [2.g	4ryy	kwiat	.	.
4r	.	4B-\ 4e-	.	.	.
4r	.	4B-\ 4e-	.	.	.
=17	=17	=17	=17	=17	=17
4EE-/ 4E-	4G/] 4g]	4B-\ 4e-	.	.	.
4r	(4A/ 4a	2ryy	Na	.	.
4r	4B-/) 4b-	.	me	.	.
=18	=18	=18	=18	=18	=18
4EEn/ 4En	2.A/ 2.a	4ryy	us-	.	.
4r	.	4c#X\ 4en	.	.	.
4r	.	4c#\ 4e	.	.	.
=19	=19	=19	=19	=19	=19
4CC#X/ 4C#X	2.G/ 2.g	4r	-ta	.	.
4r	.	4c#X\ 4en	.	.	.
4r	.	4c#\ 4e	.	.	.
=20	=20	=20	=20	=20	=20
4DD/ 4D	2.F#X/ 2.f#X	4r	padł...	.	.
4r	.	4A\ 4d	.	.	.
4r	.	4A\ 4d	.	.	.
*	*v	*v	*	*	*
=21	=21	=21	=21	=21
!	!	!	!	!LO:DY:b
2FF/ 2C	4r	.	.	p
.	(4F/ 4f	Jak	.	.
4r	4En/) 4en	we	.	.
!!LO:LB:g=original	!	!	!	!
=22	=22	=22	=22	=22
*	*^	*	*	*
4AAA/ 4AA	2.E-/ [2.e-X	4r	śnie	.	.
4r	.	4A\ 4c	.	.	.
4r	.	[4A\ 4c	.	.	.
=23	=23	=23	=23	=23	=23
4FFF/ 4FF	4E-/ 4e-]	2.A\] 2.c	.	.	.
4r	4E-/ 4e-	.	Jak	.	.
4r	4F/ 4f	.	we	.	.
=24	=24	=24	=24	=24	=24
4BBB-/ 4BB-	2.D/ [2.d	4r	śnie	.	.
4r	.	4F\ 4B-	.	.	.
4r	.	[4F\ 4B-	.	.	.
=25	=25	=25	=25	=25	=25
!	!LO:SIC:v:s=4d 4D)	!	!	!	!
4FFF/ 4FF	4E-/ 4d]	4F\] 4B-	.	.	.
4r	(4F/ 4f	2ryy	Dziw-	.	.
4r	4En/) 4en	.	-ny	.	.
=26	=26	=26	=26	=26	=26
4AAA/ 4AA	2.E-X/ [2.e-X	4ryy	żar	.	.
4r	.	4A\ 4c	.	.	.
4r	.	[4A\ 4c	.	.	.
=27	=27	=27	=27	=27	=27
4FFF/ 4FF	4E-/ 4e-]	2.A\] 2.c	.	.	.
4r	(<4E-/ 4e-	.	spo-	.	.
4r	4F/) 4f	.	-wił	.	.
=28	=28	=28	=28	=28	=28
4BBB-/ 4BB-	([<2.D/ 2.d	4r	mnie	.	.
4r	.	4F\ 4B-	.	.	.
4r	.	[4F\ 4B-	.	.	.
=29	=29	=29	=29	=29	=29
4FFF/ 4FF	4D/]) 4d	4F\] 4B-	.	.	.
4r	(4D/ 4d	2ryy	Ra-	.	.
4r	4F/) 4f	.	-mion	.	.
!!LO:LB:g=original	!	!	!	!	!
=30	=30	=30	=30	=30	=30
4DD/ 4D	2.B-/ 2.b-	4ryy	splot,	.	.
4r	.	4d\ 4f#X	.	.	.
4r	.	4d\ 4f#	.	.	.
=31	=31	=31	=31	=31	=31
4DD/ 4D	2A/ 2a	4r	Cia-	.	.
4r	.	4d\ 4f#X	.	.	.
4r	4F#X/ 4f#	4ryy	-ło	.	.
=32	=32	=32	=32	=32	=32
4EE-/ 4E-	2.G/ 2.g	4ryy	jaśń	.	.
4r	.	4B-\ 4e-	.	.	.
4r	.	4B-\ 4e-	.	.	.
=33	=33	=33	=33	=33	=33
4CC/ 4C	2.E-/ 2.e-	4r	Ach,	.	.
4r	.	4G\ 4c	.	.	.
4r	.	4G\ 4c	.	.	.
*	*v	*v	*	*	*
=34	=34	=34	=34	=34
2.FF/ 2.D	4B-/ 4d	wszys-	.	<
.	4c/ 4e-	-tko	.	.
.	4d/ 4f	jak	.	[[
=35	=35	=35	=35	=35
*	*^	*	*	*
!	!	!	!	!	!LO:DY:b
2.FF/ 2.C	2c/	4r	sen-	.	f
.	.	4F\ 4A	.	.	.
.	4d/	4r	-na	.	.
*	*v	*v	*	*	*
=36||	=36||	=36||	=36||	=36||
*>A1	*>A1	*>A1	*>A1	*>A1
4BB-/	2.F/ [2.B-	baśń	.	>
4FF/	.	.	.	.
4DD/	.	.	.	.
=37	=37	=37	=37	=37
4BBB-/	4F/ 4B-]	.	.	.
4r	(4F/ 4f	Jak	.	.
4r	4En/) 4en	we	.	]
!!LO:PB:g=original	!	!	!	!
=38:|	=38:|	=38:|	=38:|	=38:|
*>A2	*>A2	*>A2	*>A2	*>A2
4BB-/	[2.F/ [2.B-	baśń	.	.
4FF/	.	.	.	.
4DD/	.	.	.	.
=39	=39	=39	=39	=39
8BBB-/	8F/L] 8B-]	.	.	<
8r	8B-^/	.	.	.
4r	8c^/	.	.	.
.	8d^/	.	.	.
4r	8e-^/	.	.	.
.	8f^/J	.	.	[[
=40||	=40||	=40||	=40||	=40||
*>A3	*>A3	*>A3	*>A3	*>A3
4BB-/	2.F/ [2.B-	baśń	.	.
4FF/	.	.	.	.
4DD/	.	.	.	.
=41	=41	=41	=41	=41
*k[b-e-a-]	*k[b-e-a-]	*	*	*
*c:	*c:	*	*	*
4BBB-/	4F/ 4B-]	.	.	.
4r	4r	.	.	.
4r	4r	.	.	.
=42|:	=42|:	=42|:	=42|:	=42|:
*>B	*>B	*>B	*>B	*>B
4EE-/ 4E-	2g\ 2b- 2gg	Bal	Pom-	f
4G\ 4B- 4e-	.	.	.	.
4G\ 4B- 4e-	[4a-\ 4b- [4aa-	wrzał	-nisz	.
=43	=43	=43	=43	=43
4BBB-/ 4BB-	4a-\] 4b- 4aa-]	.	.	.
4G\ 4B- 4e-	4a-\ 4b- 4aa-	goś-	czar	.
4G\ 4B- 4e-	4g\ 4b- 4gg	-ci	ko-	.
=44	=44	=44	=44	=44
4FF/ 4F	2b-\ 2dd 2bb-	ro-	-cha-	.
4A-\ 4B- 4d	.	.	.	.
4A-\ 4B- 4d	[4g\ 4b- [4gg	-je	-nia	.
=45	=45	=45	=45	=45
4BBB-/ 4BB-	4g\] 4b- 4gg]	.	.	.
4A-\ 4B- 4d	4f\ 4b- 4ff	Mod-	Ca-	.
4A-\ 4B- 4d	4g\ 4b- 4gg	-ne	-ło-	.
=46	=46	=46	=46	=46
4DD/ 4D	2b-\ 2dd 2bb-	stro-	-wa-	.
4A-\ 4B- 4d	.	.	.	.
4A-\ 4B- 4d	[4g\ 4b- [4gg	-je	-nia	.
!!LO:LB:g=original	!	!	!	!
=47	=47	=47	=47	=47
4BBB-/ 4BB-	4g\] 4b- 4gg]	.	.	.
4A-\ 4B- 4d	4f\ 4b- 4ff	Lśni-	Żar-	.
4A-\ 4B- 4d	4g\ 4b- 4gg	-ły	-nych	.
=48	=48	=48	=48	=48
4EE-/ 4E-	[2.e-\ 2.b- [2.ee-	wkrąg	ust	.
4G\ 4B-	.	.	.	.
4G\ 4B-	.	.	.	.
=49	=49	=49	=49	=49
4BBB-/ 4BB-	4e-\] 4b- 4ee-]	.	.	.
!	!	!	!	!LO:DY:b
4r	4B-/	Po-	Mi-	p
4r	4c/	-przez	-łość	.
=50	=50	=50	=50	=50
4EE-/ 4E-	(4d/	pa-	na-	<
4G\ 4B-	4e-/	-ry	-gle	.
4r	4f/	pły-	błys-	.
=51	=51	=51	=51	=51
4BBB-/ 4BB-	4g/	-nę-	-nę-	.
4G\ 4B-	8b-\)	-liś-	-ła	.
.	8r	.	.	[
4r	8r	.	.	.
.	8dd\	-my	jak	.
=52	=52	=52	=52	=52
*	*^	*	*	*
!	!	!	!	!	!LO:DY:b
4FF/ 4F	[2.cc/	4r	w dal	cud	f
4A-\ 4d	.	4f\ 4a-	.	.	.
4A-\ 4d	.	4f\ 4a-	.	.	.
=53	=53	=53	=53	=53	=53
4BBB-/ 4BB-	4cc/]	4f\ 4a-	.	.	.
4A-\ 4d	(>4B-/	2ryy	Na-	I	<
4r	4c/	.	-szym	przez	.
*	*v	*v	*	*	*
=54	=54	=54	=54	=54
4FF/ 4F	4d/	ser-	sa-	.
4A-\ 4B- 4d	4e-/	-com	-lę	.
4r	4en/	ślub	walc	[
=55	=55	=55	=55	=55
4BBB-/ 4BB-	4f/	da-	zno-	.
4A-\ 4B- 4d	8a-/)	-wał	-wu	.
.	8r	.	.	.
4r	8r	.	.	.
.	8dd\	ten	nas	.
!!LO:LB:g=original	!	!	!	!
=56	=56	=56	=56	=56
*	*^	*	*	*
4EE-/ 4E-	[2.cc/	4ryy	bal	wiódł	.
4G\ 4B-	.	4e-\ 4g	.	.	.
4G\ 4B-	.	4e-\ 4g	.	.	.
=57	=57	=57	=57	=57	=57
4BBB-/ 4BB-	8cc/L]	8e-\ 8g	.	.	.
.	8B-/	8r	.	.	<
4r	8c/	4r	.	.	.
.	8d/	.	.	.	.
4r	8e-/	4r	.	.	.
.	8f/J	.	.	.	[[
*	*v	*v	*	*	*
=58	=58	=58	=58	=58
!	!	!	!	!LO:DY:b
4EE-/ 4E-	2g\ 2b- 2gg	Po-	Dzi-	f
4G\ 4B- 4e-	.	.	.	.
4G\ 4B- 4e-	[4a-\ 4b- [4aa-	-tem	-siaj	.
=59	=59	=59	=59	=59
4BBB-/ 4BB-	4a-\] 4b- 4aa-]	.	.	.
4G\ 4B- 4e-	4a-\ 4b- 4aa-	w bu-	jesz-	.
4G\ 4B- 4e-	4g\ 4b- 4gg	-du-	-cze	.
=60	=60	=60	=60	=60
4FF/ 4F	2b-\ 2dd 2bb-	-a-	pom-	.
4A-\ 4B- 4d	.	.	.	.
4A-\ 4B- 4d	[4g\ 4b- [4gg	-rze	-nę	.
=61	=61	=61	=61	=61
4BBB-/ 4BB-	4g\] 4b- 4gg]	.	.	.
4A-\ 4B- 4d	4f\ 4b- 4ff	Na-	Bez-	.
4A-\ 4B- 4d	4g\ 4b- 4gg	-sze	-przy-	.
=62	=62	=62	=62	=62
4DD/ 4D	2b-\ 2dd 2bb-	twa-	-tom-	.
4A-\ 4B- 4d	.	.	.	.
4A-\ 4B- 4d	[4g\ 4b- [4gg	-rze	-ne	.
=63	=63	=63	=63	=63
4BBB-/ 4BB-	4g\] 4b- 4gg]	.	.	.
4A-\ 4B- 4d	4f\ 4b- 4ff	Zwar-	chwi-	.
4A-\ 4B- 4d	4g\ 4b- 4gg	-ły	-le	.
!!LO:LB:g=original	!	!	!	!
=64	=64	=64	=64	=64
4EE-/ 4E-	[2.e-\ 2.b- [2.ee-	się	te	.
4G\ 4B-	.	.	.	.
4G\ 4B-	.	.	.	.
=65	=65	=65	=65	=65
4BBB-/ 4BB-	4e-\] 4b- 4ee-]	.	.	.
!	!	!	!	!LO:DY:b
4r	(>4B-/	Zda-	Jesz-	p <
4r	4c/	-la	-cze	.
=66	=66	=66	=66	=66
4EE-/ 4E-	4d/	walc	dziś	.
4G\ 4B-	4e-/	nu-	to	.
4r	4f/)	-cił	wspom	[[
=67||	=67||	=67||	=67||	=67||
*>B1	*>B1	*>B1	*>B1	*>B1
4BBB-/ 4BB-	(<4g/	ci-	.	.
4G\ 4B-	8b-\)	-cho	.	.
.	8r	.	.	.
4r	8r	.	.	.
.	8dd\	swój	.	.
=68	=68	=68	=68	=68
!	!	!	!	!LO:DY:b
4GG/ 4G	[2.cc\	śpiew	.	f
4B-\ 4d	.	.	.	.
4B-\ 4d	.	.	.	.
=69	=69	=69	=69	=69
4DD/ 4D	4cc\]	.	.	.
4r	(4B-/ 4b-	Na-	.	.
4r	4c/) 4cc	-szych	.	.
=70	=70	=70	=70	=70
*	*^	*	*	*
4FF#X/ 4F#X	2.d/ 2.dd	4r	serc	.	.
!	!	!LO:SIC:v:s=4a 4f#	!	!	!
4r	.	4f#X\ 4a-	.	.	.
!	!	!LO:SIC:v:s=4a 4f#	!	!	!
4r	.	4f#\ 4a-	.	.	.
=71	=71	=71	=71	=71	=71
4DD/ 4D	2An/ 2an	4r	był	.	.
4r	.	4d\ 4f#X	.	.	.
4r	4B-/ 4b-	4r	to	.	.
!!LO:LB:g=original	!	!	!	!	!
=72	=72	=72	=72	=72	=72
2GG/ 2D	2G/ 2g	4r	zew...	.	.
.	.	4B-\ 4d	.	.	.
4EEn^>/ 4En	8f#X/L	4r	.	.	.
.	8g/J	.	.	.	.
*	*v	*v	*	*	*
=73	=73	=73	=73	=73
!	!	!	!	!LO:DY:b
4FF^>/ 4F	8b-^/L	.	.	ff
.	8a-^/	.	.	.
4DD^>/ 4D	8f^/	.	.	.
.	8d^/	.	.	.
4BBB-^>/ 4BB-	8c^/	.	.	.
.	8B-^/J	.	.	.
=74:|	=74:|	=74:|	=74:|	=74:|
*>B2	*>B2	*>B2	*>B2	*>B2
4EEn/ 4En	(<4g/	nie-	.	.
4G\ 4B-	8b-\)	-nie	.	.
.	8r	.	.	.
4r	8r	.	.	.
.	8dd\	czar	.	.
=75	=75	=75	=75	=75
4FF/ 4F	[2.cc\	tchnie	.	.
4A-\ 4c 4f	.	.	.	.
4A-\ 4c 4f	.	.	.	.
=76	=76	=76	=76	=76
4A-\ 4c 4f	4cc\]	.	.	.
4r	4.b-\	I	.	.
4r	.	u-	.	.
.	8dd\	.	.	.
=77	=77	=77	=77	=77
4FF/ 4F	2cc\	-pa-	.	.
4A-\ 4B- 4d	.	.	.	.
4A-\ 4B- 4d	[4b-\	-ja	.	.
=78	=78	=78	=78	=78
4BBB-/ 4BB-	4b-\]	.	.	.
4r	4A-/ 4f	jak	.	.
4r	4B-/ 4g	we	.	.
=79	=79	=79	=79	=79
4EE-/ 4E-	[2.G/ 2.B- [2.e-	śnie	.	.
4BBB-/ 4BB-	.	.	.	.
4GGG/ 4GG	.	.	.	.
=80	=80	=80	=80	=80
4EEE-/ 4EE-	4G/] 4B- 4e-]	.	.	.
4r	(4F/ 4f	Jak	.	.
4r	4En/) 4en	we	.	.
!LO:TX:a:i:t=D.S.al Fine.	!	!	!	!
!LO:TX:b:rj:t=[segno]	!LO:TX:a:rj:t=[segno]	!	!	!
=:||	=:||	=:||	=:||	=:||
*-	*-	*-	*-	*-
!!!system-decoration: {(s1,s2)}
!!!RDF**kern: > = above
!!!RDF**kern: < = below
!!!ENC: Anastazja Marusiak
!!!END: 2023-08-24
!!!ENC: Jan Barakat
!!!END: 2023-09-21
!!!YEM: Copyright © 2022 by [Copyright Holder]
